X:1
T:In Lovingkindness Jesus Came
T:Charles Hutchinson Gabriel, 1905
T:In Lovingkindness Jesus Came
T:Public Domain
T:Public Domain
C:Charles Hutchinson Gabriel, 1905
Z:Public Domain
%%score ( 1 2 ) ( 3 4 )
L:1/8
M:3/4
K:G
V:1 treble 
V:2 treble 
V:3 bass 
V:4 bass 
V:1
 [B,D] | [B,D][B,E] [B,E]3 [B,D] | [DB][DB] [Ec]3 [DB] | [CB][CA] [CD]3 [CA] | %4
w: 1.~In|lov- ing- kind- ness|Je- sus came My|soul in mer- cy|
w: 2.~He|called me long be-|fore I heard, Be-|fore my sin- ful|
w: 3.~His|brow was pierced with|many a thorn, His|hands by cru- el|
w: 4.~Now|on a high- er|plane I dwell, And|with my soul I|
 [CA][B,G] [B,G]3 [B,D] | [B,D][B,E] [B,E]3 [B,D] | [DB][DB] [Ec]3 [DB] | [^CB][CA] [CA]2 [CE]2 | %8
w: to re- claim, And|from the depths of|sin and shame Through|grace He lift- ed|
w: heart was stirred, But|when I took Him|at His word, For-|giv’n, He lift- ed|
w: nails were torn, When|from my guilt and|grief, for- lorn, In|love He lift- ed|
w: know ’tis well; Yet|how or why I|can- not tell He|should have lift- ed|
 (CD FE [DA]) ||"^Refrain" [CD] | [B,D][DG] [GB]3 [Gd] | [Fd][DF] [DF]3 D | [DF][FA] [Fc]3 [Fe] | %13
w: me. * * * *|||||
w: me. * * * *|||||
w: me. * * * *|||||
w: me. * * * *|||||
 [Ge][Gd] [Gd]3 [B,D][DG][GB] [Gd]3 [Gd] | [=Fe][Fd] [Ec]3 [Ec] | [EG][_EG] [DB][Gd] | %16
w: |||
w: |||
w: |||
w: |||
 [GB]2 [FA]2 G- | G4- G |] %18
w: ||
w: ||
w: ||
w: ||
V:2
 x | x6 | x6 | x6 | x6 | x6 | x6 | x6 | A4- x || x | x6 | x5 D | x6 | x12 | x6 | x4 | x4 G- | %17
 G4- G |] %18
V:3
 [G,,G,] | [G,,G,][G,,G,] [G,,G,]3 [G,,G,] | G,G, G,3 G, | [D,F,][D,F,] [D,F,]3 [D,F,] | %4
w: ~|~ ~ ~ ~|~ ~ ~ ~|~ ~ ~ ~|
 [G,,G,][G,,G,] [G,,G,]3 [G,,G,] | [G,,G,][G,,G,] [G,,G,]3 [G,,G,] | G,G, G,3 [G,,G,] | %7
w: ~ ~ ~ ~|~ ~ ~ ~|~ ~ ~ ~|
 [A,,G,][A,,G,] [A,,G,]2 [A,,G,]2 | (F,F, A,G, [D,F,]) || [D,F,] | [G,,G,][G,,B,] [G,D]3 [G,B,] | %11
w: ing sand He lift-|ed * * * *||With ten- der hand|
 [D,A,][D,C] [D,C]3 [D,F,] | [D,A,][D,D] [D,A,]3 [D,C] | %13
w: He lift- ed me,|From shades of night|
 [G,C][G,B,] [G,B,]3 G,[G,B,][G,D] [G,B,]3 [G,B,] | [G,B,][B,,G,] [C,G,]3 [C,G,] | %15
w: to plains of light, O praise His name,|lift- ed me! *|
 [C,G,][C,G,] [D,G,][D,B,] | [D,D]2 [D,C]2 [G,,G,B,]- | [G,,G,B,]4- [G,,G,B,] |] %18
w: |||
V:4
 x | x6 | G,G, G,3 G, | x6 | x6 | x6 | G,G, G,3 x | x6 | D,4- x || x | x6 | x6 | x6 | x5 G, x6 | %14
w: ||~ ~ ~ ~||||~ From sink-||me,|||||He|
 x6 | x4 | x5 | x5 |] %18
w: ||||

